X:1706
T:Miss Heyden
P:The Auld Toon o' Ayr
C:Traditional (Atholl Coll.)
R:Strathspey (8x40) ABABB
B:RSCDS 17-6
Z:Anselm Lingnau <anselm@strathspey.org>
M:4/4
L:1/8
K:D
F|"D"D>D "F#m"F>A "Bm"d3c|"G"B/A/B/c/ d>B "D"A<F F>d|\
  "D"D>D "F#m"F>A "Bm"d3f|"Em"e/f/g gf/e/ "Bm"d<BB>d|
  "D"D>D "F#m"F>A "Bm"d3c|"G"B/A/B/c/ d>B "D"A<F F>A|\
  "G"B/A/B/c/ d>B "D"A<F F>A|A<F "E7"F>D "A"[E3C3]||
F|"D"D>d F>d A<F F>A|"G"B/A/B/c/ d>B "D"A>F F>A|\
  "D"D>d F>d A<F F>A|d>B A>F "A7"E3 F|
  "D"D>d F>d A<F F>A|"G"B>A "Em"B>c "Bm"d3 f|\
  "Em"e/f/g gf/e/ "Bm"d<B B>d|"D"A<F F>D "A7"E3|]

